static/img/kroki/8d2dfb648ca92683bade353db47c9c97.svg

<?xml version="1.0" encoding="us-ascii" standalone="no"?><svg xmlns="http://www.w3.org/2000/svg" xmlns:xlink="http://www.w3.org/1999/xlink" contentStyleType="text/css" height="895px" preserveAspectRatio="none" style="width:446px;height:895px;" version="1.1" viewBox="0 0 446 895" width="446px" zoomAndPan="magnify"><defs/><g><!--class azure_machine_learning_virtual_machine_size--><g id="elem_azure_machine_learning_virtual_machine_size"><rect codeLine="23" fill="#3D176E" height="39.7891" id="azure_machine_learning_virtual_machine_size" rx="2.5" ry="2.5" style="stroke:#000D19;stroke-width:0.5;" width="432" x="7" y="849.73"/><ellipse cx="22" cy="869.6245" fill="#ADD1B2" rx="11" ry="11" style="stroke:#181818;stroke-width:1.0;"/><path d="M24.9688,875.2652 Q24.3906,875.562 23.75,875.7027 Q23.1094,875.8589 22.4063,875.8589 Q19.9063,875.8589 18.5781,874.2183 Q17.2656,872.562 17.2656,869.437 Q17.2656,866.312 18.5781,864.6558 Q19.9063,862.9995 22.4063,862.9995 Q23.1094,862.9995 23.75,863.1558 Q24.4063,863.312 24.9688,863.6089 L24.9688,866.3277 Q24.3438,865.7495 23.75,865.4839 Q23.1563,865.2027 22.5313,865.2027 Q21.1875,865.2027 20.5,866.2808 Q19.8125,867.3433 19.8125,869.437 Q19.8125,871.5308 20.5,872.6089 Q21.1875,873.6714 22.5313,873.6714 Q23.1563,873.6714 23.75,873.4058 Q24.3438,873.1245 24.9688,872.5464 L24.9688,875.2652 Z " fill="#000000"/><text fill="#D9B8FF" font-family="Helvetica" font-size="17" lengthAdjust="spacing" textLength="390" x="41" y="875.5098">azure_machine_learning_virtual_machine_size</text></g><!--class instance_type--><g id="elem_instance_type"><rect codeLine="26" fill="#3D176E" height="39.7891" id="instance_type" rx="2.5" ry="2.5" style="stroke:#000D19;stroke-width:0.5;" width="158" x="226" y="688.94"/><ellipse cx="241" cy="708.8345" fill="#ADD1B2" rx="11" ry="11" style="stroke:#181818;stroke-width:1.0;"/><path d="M243.9688,714.4752 Q243.3906,714.772 242.75,714.9127 Q242.1094,715.0689 241.4063,715.0689 Q238.9063,715.0689 237.5781,713.4283 Q236.2656,711.772 236.2656,708.647 Q236.2656,705.522 237.5781,703.8658 Q238.9063,702.2095 241.4063,702.2095 Q242.1094,702.2095 242.75,702.3658 Q243.4063,702.522 243.9688,702.8189 L243.9688,705.5377 Q243.3438,704.9595 242.75,704.6939 Q242.1563,704.4127 241.5313,704.4127 Q240.1875,704.4127 239.5,705.4908 Q238.8125,706.5533 238.8125,708.647 Q238.8125,710.7408 239.5,711.8189 Q240.1875,712.8814 241.5313,712.8814 Q242.1563,712.8814 242.75,712.6158 Q243.3438,712.3345 243.9688,711.7564 L243.9688,714.4752 Z " fill="#000000"/><text fill="#D9B8FF" font-family="Helvetica" font-size="17" lengthAdjust="spacing" textLength="116" x="260" y="714.7198">instance_type</text></g><!--class microsoft_resource--><g id="elem_microsoft_resource"><rect codeLine="29" fill="#3D176E" height="39.7891" id="microsoft_resource" rx="2.5" ry="2.5" style="stroke:#000D19;stroke-width:0.5;" width="200" x="62" y="267.57"/><ellipse cx="77" cy="287.4645" fill="#ADD1B2" rx="11" ry="11" style="stroke:#181818;stroke-width:1.0;"/><path d="M79.9688,293.1052 Q79.3906,293.402 78.75,293.5427 Q78.1094,293.6989 77.4063,293.6989 Q74.9063,293.6989 73.5781,292.0583 Q72.2656,290.402 72.2656,287.277 Q72.2656,284.152 73.5781,282.4958 Q74.9063,280.8395 77.4063,280.8395 Q78.1094,280.8395 78.75,280.9958 Q79.4063,281.152 79.9688,281.4489 L79.9688,284.1677 Q79.3438,283.5895 78.75,283.3239 Q78.1563,283.0427 77.5313,283.0427 Q76.1875,283.0427 75.5,284.1208 Q74.8125,285.1833 74.8125,287.277 Q74.8125,289.3708 75.5,290.4489 Q76.1875,291.5114 77.5313,291.5114 Q78.1563,291.5114 78.75,291.2458 Q79.3438,290.9645 79.9688,290.3864 L79.9688,293.1052 Z " fill="#000000"/><text fill="#D9B8FF" font-family="Helvetica" font-size="17" lengthAdjust="spacing" textLength="158" x="96" y="293.3498">microsoft_resource</text></g><!--class phantom_resource--><g id="elem_phantom_resource"><rect codeLine="32" fill="#3D176E" height="39.7891" id="phantom_resource" rx="2.5" ry="2.5" style="stroke:#000D19;stroke-width:0.5;" width="198" x="215" y="167.79"/><ellipse cx="230" cy="187.6845" fill="#ADD1B2" rx="11" ry="11" style="stroke:#181818;stroke-width:1.0;"/><path d="M232.9688,193.3252 Q232.3906,193.622 231.75,193.7627 Q231.1094,193.9189 230.4063,193.9189 Q227.9063,193.9189 226.5781,192.2783 Q225.2656,190.622 225.2656,187.497 Q225.2656,184.372 226.5781,182.7158 Q227.9063,181.0595 230.4063,181.0595 Q231.1094,181.0595 231.75,181.2158 Q232.4063,181.372 232.9688,181.6689 L232.9688,184.3877 Q232.3438,183.8095 231.75,183.5439 Q231.1563,183.2627 230.5313,183.2627 Q229.1875,183.2627 228.5,184.3408 Q227.8125,185.4033 227.8125,187.497 Q227.8125,189.5908 228.5,190.6689 Q229.1875,191.7314 230.5313,191.7314 Q231.1563,191.7314 231.75,191.4658 Q232.3438,191.1845 232.9688,190.6064 L232.9688,193.3252 Z " fill="#000000"/><text fill="#D9B8FF" font-family="Helvetica" font-size="17" lengthAdjust="spacing" textLength="156" x="249" y="193.5698">phantom_resource</text></g><!--class quota--><g id="elem_quota"><rect codeLine="35" fill="#3D176E" height="39.7891" id="quota" rx="2.5" ry="2.5" style="stroke:#000D19;stroke-width:0.5;" width="90" x="269" y="367.36"/><ellipse cx="284" cy="387.2545" fill="#ADD1B2" rx="11" ry="11" style="stroke:#181818;stroke-width:1.0;"/><path d="M286.9688,392.8952 Q286.3906,393.192 285.75,393.3327 Q285.1094,393.4889 284.4063,393.4889 Q281.9063,393.4889 280.5781,391.8483 Q279.2656,390.192 279.2656,387.067 Q279.2656,383.942 280.5781,382.2858 Q281.9063,380.6295 284.4063,380.6295 Q285.1094,380.6295 285.75,380.7858 Q286.4063,380.942 286.9688,381.2389 L286.9688,383.9577 Q286.3438,383.3795 285.75,383.1139 Q285.1563,382.8327 284.5313,382.8327 Q283.1875,382.8327 282.5,383.9108 Q281.8125,384.9733 281.8125,387.067 Q281.8125,389.1608 282.5,390.2389 Q283.1875,391.3014 284.5313,391.3014 Q285.1563,391.3014 285.75,391.0358 Q286.3438,390.7545 286.9688,390.1764 L286.9688,392.8952 Z " fill="#000000"/><text fill="#D9B8FF" font-family="Helvetica" font-size="17" lengthAdjust="spacing" textLength="48" x="303" y="393.1398">quota</text></g><!--class resource--><g id="elem_resource"><rect codeLine="38" fill="#3D176E" height="39.7891" id="resource" rx="2.5" ry="2.5" style="stroke:#000D19;stroke-width:0.5;" width="113" x="140.5" y="7"/><ellipse cx="155.5" cy="26.8945" fill="#ADD1B2" rx="11" ry="11" style="stroke:#181818;stroke-width:1.0;"/><path d="M158.4688,32.5352 Q157.8906,32.832 157.25,32.9727 Q156.6094,33.1289 155.9063,33.1289 Q153.4063,33.1289 152.0781,31.4883 Q150.7656,29.832 150.7656,26.707 Q150.7656,23.582 152.0781,21.9258 Q153.4063,20.2695 155.9063,20.2695 Q156.6094,20.2695 157.25,20.4258 Q157.9063,20.582 158.4688,20.8789 L158.4688,23.5977 Q157.8438,23.0195 157.25,22.7539 Q156.6563,22.4727 156.0313,22.4727 Q154.6875,22.4727 154,23.5508 Q153.3125,24.6133 153.3125,26.707 Q153.3125,28.8008 154,29.8789 Q154.6875,30.9414 156.0313,30.9414 Q156.6563,30.9414 157.25,30.6758 Q157.8438,30.3945 158.4688,29.8164 L158.4688,32.5352 Z " fill="#000000"/><text fill="#D9B8FF" font-family="Helvetica" font-size="17" lengthAdjust="spacing" textLength="71" x="174.5" y="32.7798">resource</text></g><!--class type--><g id="elem_type"><rect codeLine="41" fill="#3D176E" height="39.7891" id="type" rx="2.5" ry="2.5" style="stroke:#000D19;stroke-width:0.5;" width="79" x="269.5" y="528.15"/><ellipse cx="284.5" cy="548.0445" fill="#ADD1B2" rx="11" ry="11" style="stroke:#181818;stroke-width:1.0;"/><path d="M287.4688,553.6852 Q286.8906,553.982 286.25,554.1227 Q285.6094,554.2789 284.9063,554.2789 Q282.4063,554.2789 281.0781,552.6383 Q279.7656,550.982 279.7656,547.857 Q279.7656,544.732 281.0781,543.0758 Q282.4063,541.4195 284.9063,541.4195 Q285.6094,541.4195 286.25,541.5758 Q286.9063,541.732 287.4688,542.0289 L287.4688,544.7477 Q286.8438,544.1695 286.25,543.9039 Q285.6563,543.6227 285.0313,543.6227 Q283.6875,543.6227 283,544.7008 Q282.3125,545.7633 282.3125,547.857 Q282.3125,549.9508 283,551.0289 Q283.6875,552.0914 285.0313,552.0914 Q285.6563,552.0914 286.25,551.8258 Q286.8438,551.5445 287.4688,550.9664 L287.4688,553.6852 Z " fill="#000000"/><text fill="#D9B8FF" font-family="Helvetica" font-size="17" lengthAdjust="spacing" textLength="37" x="303.5" y="553.9298">type</text></g><!--reverse link instance_type to azure_machine_learning_virtual_machine_size--><g id="link_instance_type_azure_machine_learning_virtual_machine_size"><path codeLine="44" d="M286.8512,744.9835 C271.0912,775.5035 248.71,818.84 232.93,849.4 " fill="none" id="instance_type-backto-azure_machine_learning_virtual_machine_size" style="stroke:#FFAF37;stroke-width:2.0;"/><polygon fill="none" points="295.11,728.99,281.5201,742.2306,292.1824,747.7364,295.11,728.99" style="stroke:#FFAF37;stroke-width:2.0;"/></g><!--reverse link microsoft_resource to azure_machine_learning_virtual_machine_size--><g id="link_microsoft_resource_azure_machine_learning_virtual_machine_size"><path codeLine="45" d="M165.3619,325.6812 C168.2319,358.4212 172,409.05 172,467.15 C172,467.15 172,467.15 172,709.84 C172,762.53 197.78,820.56 212.68,849.7 " fill="none" id="microsoft_resource-backto-azure_machine_learning_virtual_machine_size" style="stroke:#FFAF37;stroke-width:2.0;"/><polygon fill="none" points="163.79,307.75,159.3848,326.2052,171.3389,325.1573,163.79,307.75" style="stroke:#FFAF37;stroke-width:2.0;"/></g><!--reverse link type to instance_type--><g id="link_type_instance_type"><path codeLine="46" d="M308.066,586.1943 C307.296,616.7143 306.25,658.05 305.48,688.61 " fill="none" id="type-backto-instance_type" style="stroke:#FFAF37;stroke-width:2.0;"/><polygon fill="none" points="308.52,568.2,302.0679,586.0429,314.0641,586.3456,308.52,568.2" style="stroke:#FFAF37;stroke-width:2.0;"/></g><!--reverse link resource to microsoft_resource--><g id="link_resource_microsoft_resource"><path codeLine="47" d="M192.0148,64.7372 C185.5548,112.4472 171.14,218.97 164.62,267.08 " fill="none" id="resource-backto-microsoft_resource" style="stroke:#FFAF37;stroke-width:2.0;"/><polygon fill="none" points="194.43,46.9,186.0691,63.9322,197.9606,65.5423,194.43,46.9" style="stroke:#FFAF37;stroke-width:2.0;"/></g><!--reverse link resource to phantom_resource--><g id="link_resource_phantom_resource"><path codeLine="48" d="M221.7881,61.5306 C244.2781,92.0506 277.32,136.9 299.84,167.46 " fill="none" id="resource-backto-phantom_resource" style="stroke:#FFAF37;stroke-width:2.0;"/><polygon fill="none" points="211.11,47.04,216.9579,65.09,226.6183,57.9713,211.11,47.04" style="stroke:#FFAF37;stroke-width:2.0;"/></g><!--reverse link phantom_resource to quota--><g id="link_phantom_resource_quota"><path codeLine="49" d="M314,225.98 C314,263.76 314,329.04 314,366.88 " fill="none" id="phantom_resource-backto-quota" style="stroke:#FFAF37;stroke-width:2.0;"/><polygon fill="none" points="314,207.98,308,225.98,320,225.98,314,207.98" style="stroke:#FFAF37;stroke-width:2.0;"/></g><!--reverse link quota to type--><g id="link_quota_type"><path codeLine="50" d="M312.8341,425.4011 C311.8741,455.9211 310.57,497.26 309.61,527.83 " fill="none" id="quota-backto-type" style="stroke:#FFAF37;stroke-width:2.0;"/><polygon fill="none" points="313.4,407.41,306.8371,425.2125,318.8311,425.5897,313.4,407.41" style="stroke:#FFAF37;stroke-width:2.0;"/></g><!--SRC=[bP1FJm8n4CNl_HHDE9E0H8742v8OlH0ZtZT3EsKRTjjrseM0-jrbMSJk7o1Sv_rctfiNQuaSqynlUOhf0ianjz8c0uAKJuZiPceJIxoZ5AZ1i2u-M-El0ZD8aRzWiaQl1TI9ZrYBbK7d-5qWFO5OBSdcHfRdFO5nUmcD3wXf0ivDl2Uzo3q6OUHuCLAgJjQFTWQoFtp01cP98XsHNgyd- -CwSjNgujydOgvtoFjXQJFhiH6pON6WBgOiY21auz4__Mp6Dv1IcoM_3sRlPIOoI9NvF0PfDmMj876XZVD8QFqsmsdZAnoFf1gsmg_dO2QAwZZiSi8e1H5hWr62G6Rl7gqr-HoIa-2AUhyO-pckQUCy685HuH4AgHPadLK-8dGs9r5HinYCjschzfbR3-6W3VgtgoPu_EvskxSymrg2tduayAxaORMRJRCwKM-6DQegkKDBhEogd1pyVW40]--></g></svg>

<svg xmlns="http://www.w3.org/2000/svg" width="446" height="895" viewBox="0 0 446 895"><rect width="432" height="39.789" x="7" y="849.73" fill="#3D176E" rx="2.5" ry="2.5" style="stroke:#000d19;stroke-width:.5"/><circle cx="22" cy="869.625" r="11" fill="#ADD1B2" style="stroke:#181818;stroke-width:1"/><path d="M24.969 875.265q-.578.297-1.219.438-.64.156-1.344.156-2.5 0-3.828-1.64-1.312-1.657-1.312-4.782t1.312-4.781Q19.906 863 22.406 863q.703 0 1.344.156.656.156 1.219.453v2.719q-.625-.578-1.219-.844-.594-.281-1.219-.281-1.343 0-2.031 1.078-.687 1.062-.687 3.156t.687 3.172q.688 1.062 2.031 1.062.625 0 1.219-.265.594-.281 1.219-.86z"/><text x="41" y="875.51" fill="#D9B8FF" font-family="Helvetica" font-size="17" textLength="390">azure_machine_learning_virtual_machine_size</text><rect width="158" height="39.789" x="226" y="688.94" fill="#3D176E" rx="2.5" ry="2.5" style="stroke:#000d19;stroke-width:.5"/><circle cx="241" cy="708.835" r="11" fill="#ADD1B2" style="stroke:#181818;stroke-width:1"/><path d="M243.969 714.475q-.578.297-1.219.438-.64.156-1.344.156-2.5 0-3.828-1.64-1.312-1.657-1.312-4.782t1.312-4.781q1.328-1.656 3.828-1.656.703 0 1.344.156.656.156 1.219.453v2.719q-.625-.578-1.219-.844-.594-.281-1.219-.281-1.344 0-2.031 1.078-.687 1.062-.687 3.156t.687 3.172q.688 1.062 2.031 1.062.625 0 1.219-.265.594-.281 1.219-.86z"/><text x="260" y="714.72" fill="#D9B8FF" font-family="Helvetica" font-size="17" textLength="116">instance_type</text><rect width="200" height="39.789" x="62" y="267.57" fill="#3D176E" rx="2.5" ry="2.5" style="stroke:#000d19;stroke-width:.5"/><circle cx="77" cy="287.464" r="11" fill="#ADD1B2" style="stroke:#181818;stroke-width:1"/><path d="M79.969 293.105q-.578.297-1.219.438-.64.156-1.344.156-2.5 0-3.828-1.64-1.312-1.657-1.312-4.782t1.312-4.781q1.328-1.656 3.828-1.656.703 0 1.344.156.656.156 1.219.453v2.719q-.625-.579-1.219-.844-.594-.281-1.219-.281-1.344 0-2.031 1.078-.687 1.062-.687 3.156t.687 3.172q.688 1.062 2.031 1.062.625 0 1.219-.265.594-.281 1.219-.86z"/><text x="96" y="293.35" fill="#D9B8FF" font-family="Helvetica" font-size="17" textLength="158">microsoft_resource</text><rect width="198" height="39.789" x="215" y="167.79" fill="#3D176E" rx="2.5" ry="2.5" style="stroke:#000d19;stroke-width:.5"/><circle cx="230" cy="187.685" r="11" fill="#ADD1B2" style="stroke:#181818;stroke-width:1"/><path d="M232.969 193.325q-.578.297-1.219.438-.64.156-1.344.156-2.5 0-3.828-1.64-1.312-1.657-1.312-4.782t1.312-4.781q1.328-1.656 3.828-1.656.703 0 1.344.156.656.156 1.219.453v2.719q-.625-.578-1.219-.844-.594-.281-1.219-.281-1.344 0-2.031 1.078-.687 1.062-.687 3.156t.687 3.172q.688 1.062 2.031 1.062.625 0 1.219-.265.594-.281 1.219-.86z"/><text x="249" y="193.57" fill="#D9B8FF" font-family="Helvetica" font-size="17" textLength="156">phantom_resource</text><rect width="90" height="39.789" x="269" y="367.36" fill="#3D176E" rx="2.5" ry="2.5" style="stroke:#000d19;stroke-width:.5"/><circle cx="284" cy="387.255" r="11" fill="#ADD1B2" style="stroke:#181818;stroke-width:1"/><path d="M286.969 392.895q-.578.297-1.219.438-.64.156-1.344.156-2.5 0-3.828-1.64-1.312-1.657-1.312-4.782t1.312-4.781q1.328-1.656 3.828-1.656.703 0 1.344.156.656.156 1.219.453v2.719q-.625-.579-1.219-.844-.594-.281-1.219-.281-1.344 0-2.031 1.078-.687 1.062-.687 3.156t.687 3.172q.688 1.062 2.031 1.062.625 0 1.219-.265.594-.281 1.219-.86z"/><text x="303" y="393.14" fill="#D9B8FF" font-family="Helvetica" font-size="17" textLength="48">quota</text><rect width="113" height="39.789" x="140.5" y="7" fill="#3D176E" rx="2.5" ry="2.5" style="stroke:#000d19;stroke-width:.5"/><circle cx="155.5" cy="26.895" r="11" fill="#ADD1B2" style="stroke:#181818;stroke-width:1"/><path d="M158.469 32.535q-.578.297-1.219.438-.64.156-1.344.156-2.5 0-3.828-1.64-1.312-1.657-1.312-4.782t1.312-4.781q1.328-1.656 3.828-1.656.703 0 1.344.156.656.156 1.219.453v2.719q-.625-.578-1.219-.844-.594-.281-1.219-.281-1.344 0-2.031 1.078-.687 1.062-.687 3.156t.687 3.172q.688 1.062 2.031 1.062.625 0 1.219-.265.594-.281 1.219-.86z"/><text x="174.5" y="32.78" fill="#D9B8FF" font-family="Helvetica" font-size="17" textLength="71">resource</text><rect width="79" height="39.789" x="269.5" y="528.15" fill="#3D176E" rx="2.5" ry="2.5" style="stroke:#000d19;stroke-width:.5"/><circle cx="284.5" cy="548.044" r="11" fill="#ADD1B2" style="stroke:#181818;stroke-width:1"/><path d="M287.469 553.685q-.578.297-1.219.438-.64.156-1.344.156-2.5 0-3.828-1.64-1.312-1.657-1.312-4.782t1.312-4.781q1.328-1.657 3.828-1.657.703 0 1.344.157.656.156 1.219.453v2.719q-.625-.579-1.219-.844-.594-.281-1.219-.281-1.344 0-2.031 1.078-.687 1.062-.687 3.156t.687 3.172q.688 1.062 2.031 1.062.625 0 1.219-.265.594-.282 1.219-.86z"/><text x="303.5" y="553.93" fill="#D9B8FF" font-family="Helvetica" font-size="17" textLength="37">type</text><path fill="none" d="M286.851 744.984c-15.76 30.52-38.141 73.856-53.921 104.416m62.18-120.41-13.59 13.24 10.662 5.506z" style="stroke:#ffaf37;stroke-width:2"/><g fill="none"><path d="M165.362 325.681c2.87 32.74 6.638 83.369 6.638 141.469v242.69c0 52.69 25.78 110.72 40.68 139.86" style="stroke:#ffaf37;stroke-width:2"/><path d="m163.79 307.75-4.405 18.455 11.954-1.048z" style="stroke:#ffaf37;stroke-width:2"/></g><g fill="none"><path d="M308.066 586.194c-.77 30.52-1.816 71.856-2.586 102.416" style="stroke:#ffaf37;stroke-width:2"/><path d="m308.52 568.2-6.452 17.843 11.996.303z" style="stroke:#ffaf37;stroke-width:2"/></g><g fill="none"><path d="M192.015 64.737c-6.46 47.71-20.875 154.233-27.395 202.343" style="stroke:#ffaf37;stroke-width:2"/><path d="m194.43 46.9-8.36 17.032 11.89 1.61z" style="stroke:#ffaf37;stroke-width:2"/></g><g fill="none"><path d="M221.788 61.53c22.49 30.52 55.532 75.37 78.052 105.93" style="stroke:#ffaf37;stroke-width:2"/><path d="m211.11 47.04 5.848 18.05 9.66-7.119z" style="stroke:#ffaf37;stroke-width:2"/></g><path fill="none" d="M314 225.98v140.9m0-158.9-6 18h12z" style="stroke:#ffaf37;stroke-width:2"/><g fill="none"><path d="M312.834 425.401c-.96 30.52-2.264 71.859-3.224 102.429" style="stroke:#ffaf37;stroke-width:2"/><path d="m313.4 407.41-6.563 17.802 11.994.378z" style="stroke:#ffaf37;stroke-width:2"/></g></svg>
